gruvbox_icons/symbolic/mimetypes/application-x-appliance-symbolic.svg

<svg xmlns="http://www.w3.org/2000/svg" width="16" height="16" version="1.1">
 <path style="fill:#cdd3e0" d="m 2,-2e-7 a 2,2 0 0 0 -2.000000049990724,2 A 2,2 0 0 0 0.99999995,3.7324217 V 12.267578 A 2,2 0 0 0 -4.9990724e-8,14 2,2 0 0 0 2,16 2,2 0 0 0 3.7324219,15 H 12.267578 A 2,2 0 0 0 14,16 2,2 0 0 0 16,14 2,2 0 0 0 15,12.271484 V 3.7324217 a 2,2 0 0 0 1,-1.7324219 2,2 0 0 0 -2,-2 2,2 0 0 0 -1.732422,1 H 3.7285156 A 2,2 0 0 0 2,-2e-7 Z m 1.7324219,3 h 8.5351561 a 2,2 0 0 0 0.03516,0.044922 L 11.175781,4.1621092 A 1.5,1.5 0 0 0 10.5,3.9999998 1.5,1.5 0 0 0 9.0957031,5.0000002 H 6.9101562 A 1.5,1.516 0 0 0 5.5,3.9999998 1.5,1.516 0 0 0 4.8554688,4.1484373 L 3.7207031,3.0136717 a 2,2 0 0 0 0.011719,-0.013672 z m -0.71875,0.7207031 1.1347656,1.1347653 a 1.5,1.516 0 0 0 0,0.002 A 1.5,1.516 0 0 0 4,5.5156752 1.5,1.516 0 0 0 5,6.9336432 v 2.16211 A 1.5,1.5 0 0 0 4,10.50005 1.5,1.5 0 0 0 4.1464844,11.146534 l -1.1328125,1.132813 a 2,2 0 0 0 -0.013672,-0.0078 V 3.7324217 a 2,2 0 0 0 0.013672,-0.011719 z M 13,3.7617189 v 8.5058591 a 2,2 0 0 0 -0.01367,0.01172 L 11.853516,11.146484 A 1.5,1.5 0 0 0 12,10.5 1.5,1.5 0 0 0 11,9.0878902 v -2.183593 a 1.5,1.5 0 0 0 1,-1.404297 1.5,1.5 0 0 0 -0.132812,-0.615235 z M 6.9121094,6.0000002 H 9.0957031 A 1.5,1.5 0 0 0 10,6.9042972 v 2.191406 A 1.5,1.5 0 0 0 9.0957031,10 H 6.9121094 A 1.5,1.5 0 0 0 6,9.0878902 V 6.9335932 A 1.5,1.516 0 0 0 6.9121094,6.0000002 Z M 6.9042994,11 H 9.0957031 A 1.5,1.5 0 0 0 10.5,12 1.5,1.5 0 0 0 11.146484,11.853516 l 1.132813,1.132812 a 2,2 0 0 0 -0.01172,0.01367 H 3.7285156 a 2,2 0 0 0 -0.00781,-0.01367 l 1.13281,-1.132814 A 1.5,1.5 0 0 0 5.5,11.999998 a 1.5,1.5 0 0 0 1.4042969,-1 z"/>
</svg>

<?xml version="1.0" encoding="UTF-8"?>
<svg height="16px" viewBox="0 0 16 16" width="16px" xmlns="http://www.w3.org/2000/svg">
    <path d="m 2 0 c -1.105469 0 -2 0.894531 -2 2 c 0.00390625 0.710938 0.382812 1.371094 1 1.726562 v 8.546876 c -0.617188 0.355468 -0.99609375 1.015624 -1 1.726562 c 0 1.105469 0.894531 2 2 2 c 0.710938 -0.003906 1.371094 -0.382812 1.726562 -1 h 8.546876 c 0.355468 0.617188 1.015624 0.996094 1.726562 1 c 1.105469 0 2 -0.894531 2 -2 c 0 -0.714844 -0.382812 -1.375 -1 -1.730469 v -8.542969 c 0.617188 -0.355468 0.996094 -1.015624 1 -1.726562 c 0 -1.105469 -0.894531 -2 -2 -2 c -0.710938 0.00390625 -1.371094 0.382812 -1.726562 1 h -8.542969 c -0.355469 -0.617188 -1.015625 -1 -1.730469 -1 z m 1.726562 3 h 8.546876 c 0.007812 0.015625 0.015624 0.03125 0.027343 0.046875 l -1.125 1.117187 c -0.210937 -0.109374 -0.441406 -0.164062 -0.675781 -0.164062 c -0.632812 0 -1.199219 0.402344 -1.410156 1 h -2.179688 c -0.214844 -0.601562 -0.777344 -1 -1.410156 -1 c -0.222656 0 -0.441406 0.050781 -0.644531 0.148438 l -1.136719 -1.136719 c 0.003906 -0.003907 0.003906 -0.007813 0.007812 -0.011719 z m -0.714843 0.71875 l 1.136719 1.136719 c -0.097657 0.207031 -0.148438 0.433593 -0.148438 0.660156 c 0 0.640625 0.402344 1.210937 1 1.425781 v 2.148438 c -0.597656 0.210937 -1 0.777344 -1 1.410156 c 0 0.222656 0.050781 0.445312 0.144531 0.644531 l -1.128906 1.132813 c -0.003906 -0.003906 -0.011719 -0.003906 -0.015625 -0.007813 v -8.542969 c 0.003906 -0.003906 0.007812 -0.007812 0.011719 -0.007812 z m 9.988281 0.042969 v 8.511719 c -0.003906 0.003906 -0.007812 0.003906 -0.011719 0.007812 l -1.132812 -1.132812 c 0.09375 -0.203126 0.144531 -0.425782 0.144531 -0.648438 c 0 -0.636719 -0.402344 -1.203125 -1 -1.414062 v -2.175782 c 0.597656 -0.210937 1 -0.777344 1 -1.410156 c 0 -0.210938 -0.046875 -0.421875 -0.132812 -0.613281 z m -6.082031 2.238281 h 2.171875 c 0.152344 0.425781 0.484375 0.757812 0.910156 0.910156 v 2.179688 c -0.425781 0.152344 -0.757812 0.484375 -0.910156 0.910156 h -2.175782 c -0.152343 -0.425781 -0.488281 -0.761719 -0.914062 -0.914062 v -2.144532 c 0.433594 -0.15625 0.769531 -0.503906 0.917969 -0.941406 z m -0.007813 5 h 2.179688 c 0.210937 0.597656 0.777344 1 1.410156 1 c 0.222656 0 0.445312 -0.050781 0.644531 -0.144531 l 1.136719 1.132812 c -0.003906 0.003907 -0.003906 0.007813 -0.007812 0.011719 h -8.542969 c -0.003907 -0.003906 -0.003907 -0.011719 -0.007813 -0.015625 l 1.128906 -1.128906 c 0.203126 0.09375 0.425782 0.144531 0.648438 0.144531 c 0.632812 0 1.199219 -0.402344 1.410156 -1 z m 0 0" fill="#2e3436"/>
</svg>
